!!!OTL: Olilili
!!!XEN: Lullaby
!!!CNT: African -- sub-Saharan -- Xhosa
!!!AMT: irregular
!!!ONB: Starts in 10/8 meter
**kern
*k[b-]
*M10/8
*MM48
=1
16a
8.f
16g
8.f
8e
8d
8f
[8c
4c]
=2
4.a
8f
8g
8f
2a
=3
16a
8.f
16g
8.f
8e
8d
8f
[8c
4c]
=4
4.a
8f
8g
8f
4.a
8d
=5
8.g
16b-
8a
8g
16f
16e
8d
2c
=6
2f
2f
8.g
16g
=7
8.f
16g
4.a
8g
2f
=8
16a
8.f
16g
8.f
8e
8d
8f
[8c
4c]
=9
4.a
8f
8g
8f
2a
=10
16a
8.f
16g
8.f
8e
8d
8f
[8c
4c]
=11
4.a
8f
8g
8f
4.a
8d
=12
8.g
16b-
8a
8g
8f
16e
16d
2c
=13
2f
2f
8.g
16g
=14
8.f
16g
4.a
8g
2f
*M8/8
!! Repeat these two bars.
=15
4.f
8a
8g
16f
16c
16d
8.d
=16
4.c
8f
8G
8F
4r
!! Repeating
=17
4.f
8a
8g
16f
16c
16d
8.d
=18
4.c
8f
8G
8F
4r
!! Continuing
=19
4.a
8f
8g
16d
16f
8f
8g
=20
4.a
8f
16c
[8.c
4c]
=21
4.a
8f
8g
16d
16f
8f
8g
=22
4.a
8f
16c
[8.c
4c]
!! Repeat the next two bars.
=23
4.f
8a
8g
16f
16c
16d
8.d
=24
4.c
8f
8G
[8F
4F]
!! Repeating.
=25
4.f
8a
8g
16f
16c
16d
8.d
=26
4.c
8f
8G
[8F
4F]
==
*-
!!!OPR: Miriam Makeba, "The World of African Song"
!!!PPP: Chicago
!!!PPR: Quadrangle Press (12 East Delaware Place)
!!!PDT: 1971///
!!!PPG: 101
!!!ENC: David Huron
!!!EMD: 1998/9/29/ Paul von Hippel updated this file in the following ways:
!!!EMD:  (1) changed the representation of slurs from curly braces to parentheses 
!!!EMD:  (2) changed freeform comments into reference records and tandem interpretations
!!!EMD:  (3) changed final barline from triple (===) to double (==)
!!!EMD:  (4) added key signature from printed source
!!!EMD:  (5) corrected metronome mark to correspond to quarter notes
!!!EEV: Version 2.0
